X:1
T:Title
%%score { ( 1 4 ) | ( 2 3 ) }
L:1/8
Q:1/4=100
M:3/4
K:G
V:1 treble nm="Grand Piano"
V:4 treble 
V:2 bass 
V:3 bass 
V:1
 [B,D]2 [DG]2 G2 | G2 F2 [A,DF]2 | [G,DG]6 | A2 B2 B2 | B2 [A,A]2 [EG]2 | F6 | F2 G2 A2 | %7
w: J.~Mountain * *|||||||
 A2 G2 [B,DG]2 | [EGc]4 [EGB]2 | [DEB]2 [FA]2 [B,G]2 | [EG]2 z2 z2 | E6 | F6 | [G,B,G]6 |] %14
w: |||||||
V:2
 [G,,G,]2 [B,,G,]2 [E,G,^C]2 | A,2 z2 z2 | B,,6 | [D,F,D]2 [G,D]2 [E,G,E]2 | G,2 z2 z2 | [D,A,D]6 | %6
 [D,A,D]2 [D,B,D]2 [D,CD]2 | C2 z2 z2 | G,4 G,2 | z2 C2 E,2 | ^C,2 D,2 B,,2 | C,4 A,,2 | %12
 [B,D]4 A,2 | G,,6 |] %14
V:3
 x6 | [D,D]2- [D,B,D]2 C,2 | x6 | x6 | C,4 [C,B,]2 | x6 | x6 | [G,D]2- [G,B,D]2 G,2 | x6 | D,4 z2 | %10
 x6 | x6 | D,6 | x6 |] %14
V:4
 x6 | x6 | x6 | x6 | E4 z2 | x6 | x6 | x6 | x6 | x6 | A,2- [A,DF]2 [G,DG]2 | [G,C]4 C2 | z2 z2 C2 | %13
 x6 |] %14

